v3/ui/src/layouts/Default/lyra.svg

<svg
  width="24"
  height="24"
  viewBox="0 0 34 34"
  fill="none"
  xmlns="http://www.w3.org/2000/svg"
>
<path
    fill-rule="evenodd"
    clip-rule="evenodd"
    d="M0.242188 19.7133C0.706711 20.4506 1.58794 21.1773 3.98912 21.1739H27.3485C28.2537 21.1739 29.2749 21.852 29.6336 22.6935L33.5069 31.8635C33.8621 32.7051 33.4147 33.3866 32.5095 33.3866H8.56946C7.14515 33.2962 5.82331 32.9207 5.21191 31.474L0.242188 19.7133ZM20.3294 0.743906L24.2471 10.0287C24.6024 10.8737 24.3804 12.0908 23.7485 12.7515L18.0683 18.8057H5.15385C3.10789 18.8301 1.89535 18.0407 3.6339 16.1177L18.5465 0.413549C19.175 -0.247164 19.9742 -0.101112 20.3294 0.743906Z"
    fill="#05C99B"
  /></svg>

<svg width="24" height="24" fill="none" viewBox="0 0 34 34" xmlns="http://www.w3.org/2000/svg">
  <path fill="#05C99B" fill-rule="evenodd" d="M.242 19.713c.465.738 1.346 1.464 3.747 1.46h23.36c.905 0 1.926.679 2.285 1.52l3.873 9.17c.355.842-.092 1.524-.997 1.524H8.57c-1.425-.09-2.747-.466-3.358-1.913l-4.97-11.76ZM20.33.743l3.918 9.286c.355.845.133 2.062-.498 2.723l-5.68 6.054H5.153c-2.046.024-3.259-.765-1.52-2.688L18.547.414c.628-.661 1.427-.515 1.782.33Z" clip-rule="evenodd"/>
</svg>
